X: 17
T: Cat's Meow, The
C: Joanie Madden
Z: leprecawn
S: https://thesession.org/tunes/342#setting51268
R: jig
M: 6/8
L: 1/8
K: Dmaj
|:D|FAd fef|afe dBA|BdB BAF|dAF E2 E|
FAd fef|afe dBA|Bde fdB|AFE D2:|
|:e|fdB AFA|DFA d2 e|gef ged|ced cBA|
fdB AFA|DFA d2 e|gec age|edc d2:|
|:d|FAd fef|agf agf|Ace g2 g|gfe gfe|
fef gfg|aga bag| faf gec|edc d2:|

%-------------------- TUNE SEPARATOR --------------------%

